X:60
T: Kisétálél kis kertembe
O: Trunk (Bákó), 1932
Q: 1/4=116
L:1/4
K:G
B>c (3:2:2 BA2 | G>F (3:2:2 GA2 | 
B>c (3:2:2 BA2 | G2 z z/ |
B>c (3:2:2 BA2 | G>A (3:2:2 ED2 | 
G>A (3:2:2 G=F2 | E2 z2 |

